modules/hawcons-filled/icons/icon-12-mail-add.svg

<?xml version="1.0" encoding="UTF-8" standalone="no"?>
<svg width="32px" height="32px" viewBox="0 0 32 32" version="1.1" xmlns="http://www.w3.org/2000/svg" xmlns:xlink="http://www.w3.org/1999/xlink" xmlns:sketch="http://www.bohemiancoding.com/sketch/ns">
    <!-- Generator: Sketch 3.0.3 (7891) - http://www.bohemiancoding.com/sketch -->
    <title>icon 12 mail add</title>
    <desc>Created with Sketch.</desc>
    <defs></defs>
    <g id="Page-1" stroke="none" stroke-width="1" fill="none" fill-rule="evenodd" sketch:type="MSPage">
        <g id="icon-12-mail-add" sketch:type="MSArtboardGroup" fill="#929292">
            <path d="M25,21 L22,21 L22,20 L25,20 L25,17 L26,17 L26,20 L29,20 L29,21 L26,21 L26,24 L25,24 L25,21 L25,21 Z M20.1346532,16.8297027 L18,15 L23.9230769,9.92307692 L23.9230769,9.92307692 L23.1153846,9.11538462 L14.5,16.5 L5.88461538,9.11538462 L5.07692308,9.92307692 L5.07692308,9.92307692 L11,15 L5.07692308,20.0769231 L5.07692308,20.0769231 L5.88461538,20.8846154 L11.875,15.75 L14.5,18 L17.125,15.75 L19.5662958,17.8425392 C19.2024023,18.6538117 19,19.5532691 19,20.5 C19,21.3859009 19.1772281,22.2304079 19.4981633,23 L4.00359486,23 C2.88976324,23 2,22.1072288 2,21.0059397 L2,8.99406028 C2,7.89451376 2.89703997,7 4.00359486,7 L24.9964051,7 C26.1102368,7 27,7.8927712 27,8.99406028 L27,14.1739318 C26.5184807,14.0601887 26.0162692,14 25.5,14 C23.2719893,14 21.3057971,15.1209775 20.1346532,16.8297027 L20.1346532,16.8297027 L20.1346532,16.8297027 Z M25.5,26 C28.5375663,26 31,23.5375663 31,20.5 C31,17.4624337 28.5375663,15 25.5,15 C22.4624337,15 20,17.4624337 20,20.5 C20,23.5375663 22.4624337,26 25.5,26 L25.5,26 Z" id="mail-add" sketch:type="MSShapeGroup"></path>
        </g>
    </g>
</svg>

<svg width="32" height="32" xmlns="http://www.w3.org/2000/svg"><path d="M25 21h-3v-1h3v-3h1v3h3v1h-3v3h-1v-3zm-4.865-4.17L18 15l5.923-5.077-.808-.808L14.5 16.5 5.885 9.115l-.808.808L11 15l-5.923 5.077.808.808 5.99-5.135L14.5 18l2.625-2.25 2.441 2.093A6.477 6.477 0 0 0 19 20.5c0 .886.177 1.73.498 2.5H4.004A1.994 1.994 0 0 1 2 21.006V8.994A2 2 0 0 1 4.004 7h20.992C26.11 7 27 7.893 27 8.994v5.18A6.518 6.518 0 0 0 25.5 14a6.493 6.493 0 0 0-5.365 2.83zM25.5 26a5.5 5.5 0 1 0 0-11 5.5 5.5 0 0 0 0 11z" fill="#929292" fill-rule="evenodd"/></svg>
